arkscan/icons/graviex.svg

<svg viewBox="0 0 20 21" fill="none" xmlns="http://www.w3.org/2000/svg">
  <path
    d="M10.0006 19.555C15.2736 19.555 19.5481 15.2804 19.5481 10.0075C19.5481 4.73453 15.2736 0.459961 10.0006 0.459961C4.72769 0.459961 0.453125 4.73453 0.453125 10.0075C0.453125 15.2804 4.72769 19.555 10.0006 19.555Z"
    stroke="#637282" stroke-width="0.904977" />
  <path
    d="M7.29042 15.8721C7.54382 15.8721 7.74744 15.6685 7.74744 15.4151C7.74744 15.1617 7.54382 14.9581 7.29042 14.9581C7.03703 14.9581 6.83341 15.1617 6.83341 15.4151C6.83341 15.664 7.03703 15.8721 7.29042 15.8721ZM10.0008 15.845C12.123 15.845 13.847 14.1165 13.847 11.9988V7.97166C13.847 5.84949 12.123 4.12551 10.0008 4.12551C7.87866 4.12551 6.15468 5.84949 6.15468 7.97166C6.15468 10.0938 7.87866 11.8178 10.0008 11.8178C10.1456 11.8178 10.2904 11.8088 10.4578 11.7861C10.5845 11.7726 10.7067 11.7545 10.8289 11.7273C11.3719 11.6097 11.3945 11.2658 11.3764 11.121C11.3719 11.0576 11.3221 10.7499 11.0054 10.7499C10.9194 10.7499 10.8153 10.7726 10.7067 10.8133C10.5393 10.8812 10.3357 10.9083 10.0008 10.9083C8.38092 10.9083 7.05966 9.58704 7.05966 7.96713C7.05966 6.34723 8.38092 5.02596 10.0008 5.02596C11.6207 5.02596 12.942 6.34723 12.942 7.96713V11.9943C12.942 13.6142 11.6207 14.9355 10.0008 14.9355C9.52572 14.9355 9.3583 15.1843 9.3583 15.4015C9.3583 15.6775 9.60264 15.845 10.0008 15.845ZM7.29042 16.5509C6.66146 16.5509 6.15468 16.0395 6.15468 15.4151C6.15468 14.7861 6.66599 14.2794 7.29042 14.2794C7.91938 14.2794 8.42617 14.7907 8.42617 15.4151C8.43069 16.0395 7.91938 16.5509 7.29042 16.5509ZM10.0008 16.5237C8.21803 16.5237 8.26328 14.2613 10.0008 14.2613C11.2497 14.2613 12.2633 13.2477 12.2633 11.9988V7.97166C12.2633 6.7228 11.2497 5.70922 10.0008 5.70922C8.75196 5.70922 7.73839 6.7228 7.73839 7.97166C7.73839 9.22053 8.75196 10.2341 10.0008 10.2341C10.1592 10.2341 10.3583 10.2296 10.4578 10.1889C10.6569 10.1119 10.8379 10.0757 11.0054 10.0757C12.2587 10.0757 12.571 12.0395 10.9782 12.3925C10.8334 12.4242 10.6886 12.4422 10.5438 12.4603C10.3673 12.483 10.1864 12.4966 10.0054 12.4966C7.50762 12.4966 5.48047 10.4694 5.48047 7.97166C5.48047 5.47393 7.50762 3.44678 10.0054 3.44678C12.5031 3.44678 14.5302 5.47393 14.5302 7.97166V11.9988C14.5257 14.4966 12.4986 16.5192 10.0008 16.5237Z"
    fill="#637282" />
</svg>

<svg viewBox="0 0 20 21" fill="none" xmlns="http://www.w3.org/2000/svg"><path d="M10 19.555a9.547 9.547 0 0 0 9.548-9.547 9.547 9.547 0 1 0-19.095 0 9.548 9.548 0 0 0 9.548 9.547Z" stroke="#637282" stroke-width=".905"/><path d="M7.29 15.872a.456.456 0 0 0 .457-.457.456.456 0 0 0-.457-.457.456.456 0 0 0-.457.457c0 .249.204.457.457.457Zm2.71-.027a3.852 3.852 0 0 0 3.847-3.846V7.972a3.849 3.849 0 0 0-3.846-3.846 3.849 3.849 0 0 0-3.846 3.846A3.849 3.849 0 0 0 10 11.818c.145 0 .29-.01.457-.032.127-.013.249-.031.37-.059.544-.117.567-.461.548-.606-.004-.063-.054-.371-.37-.371a.887.887 0 0 0-.3.063c-.167.068-.37.095-.705.095a2.947 2.947 0 0 1-2.941-2.94A2.947 2.947 0 0 1 10 5.025a2.947 2.947 0 0 1 2.942 2.941v4.027a2.947 2.947 0 0 1-2.941 2.941c-.475 0-.643.25-.643.466 0 .277.245.444.643.444Zm-2.71.706a1.137 1.137 0 1 1 .002-2.273 1.137 1.137 0 0 1-.002 2.273Zm2.71-.027c-1.782 0-1.737-2.263 0-2.263A2.263 2.263 0 0 0 12.264 12V7.972a2.263 2.263 0 1 0-2.262 2.262c.158 0 .357-.004.457-.045.199-.077.38-.113.547-.113 1.254 0 1.566 1.963-.027 2.316-.145.032-.29.05-.434.068a4.233 4.233 0 0 1-.539.037A4.527 4.527 0 0 1 5.48 7.972a4.527 4.527 0 0 1 4.525-4.525 4.526 4.526 0 0 1 4.525 4.525v4.027A4.536 4.536 0 0 1 10 16.524Z" fill="#637282"/></svg>
